public/home/dao-it/icons/uniswap.svg

<svg width="41" height="41" viewBox="0 0 41 41" fill="none" xmlns="http://www.w3.org/2000/svg">
<mask id="mask0_352_1938" style="mask-type:luminance" maskUnits="userSpaceOnUse" x="0" y="0" width="41" height="41">
<path d="M40.625 0.5V40.5H0.625V0.5H40.625Z" fill="white"/>
</mask>
<g mask="url(#mask0_352_1938)">
<path d="M20.233 0.5C24.1111 0.5 27.9021 1.64999 31.1266 3.80454C34.3511 5.9591 36.8643 9.02145 38.3484 12.6043C39.8325 16.1872 40.2208 20.1298 39.4642 23.9333C38.7077 27.7369 36.8402 31.2307 34.0979 33.9729C31.3557 36.7152 27.8619 38.5827 24.0583 39.3392C20.2548 40.0958 16.3122 39.7075 12.7293 38.2234C9.14645 36.7393 6.0841 34.2261 3.92954 31.0016C1.77499 27.7771 0.625 23.9861 0.625 20.108C0.625 14.9076 2.69084 9.92026 6.36805 6.24305C10.0453 2.56584 15.0326 0.5 20.233 0.5Z" fill="#DFE225"/>
</g>
<path d="M17.9221 13.4867C17.6608 13.4493 17.6483 13.436 17.7728 13.4253C18.1649 13.4024 18.5582 13.4359 18.9408 13.5249C19.9525 13.8145 20.8479 14.4142 21.5008 15.2395L21.7248 15.5009L22.0475 15.4511C23.3932 15.2215 24.7767 15.3946 26.0243 15.9489C26.3393 16.0924 26.6389 16.2675 26.9186 16.4715C26.9654 16.5823 26.9954 16.6995 27.0075 16.8191C27.1133 17.2733 27.0651 17.7499 26.8706 18.1738C26.8263 18.2293 26.7992 18.2966 26.7926 18.3673C26.7859 18.438 26.8001 18.5092 26.8332 18.572C26.8637 18.6351 26.9112 18.6884 26.9705 18.7258C27.0297 18.7632 27.0983 18.7832 27.1683 18.7835C27.4661 18.7835 27.7772 18.3115 27.9257 17.6529L27.987 17.3915L28.099 17.516C28.7148 18.1841 29.1325 19.0105 29.3052 19.9027L29.3301 20.0884L29.2181 19.9267C29.066 19.6756 28.8628 19.4594 28.6217 19.292C27.9938 18.9537 27.2821 18.8028 26.571 18.8573C25.8007 18.8464 25.0356 18.7295 24.2972 18.5098C23.2786 18.1747 22.7559 17.7391 21.5506 16.1355C21.1881 15.6309 20.7847 15.157 20.3443 14.7187C19.6952 14.0521 18.8433 13.6194 17.9221 13.4884V13.4867Z" fill="#242424"/>
<path d="M27.1812 15.0644C27.1822 14.6974 27.2581 14.3344 27.4044 13.9978C27.4318 13.9227 27.4695 13.8519 27.5164 13.7871C27.5288 13.7871 27.5039 13.876 27.4666 13.9729C27.3651 14.3288 27.348 14.7035 27.4168 15.0671C27.5057 15.6262 27.5412 15.7018 28.1377 16.3116C28.4115 16.5978 28.7341 16.9578 28.8586 17.1071L29.0701 17.3809L28.8586 17.1827C28.5498 16.8943 28.2173 16.6324 27.8648 16.3996C27.7759 16.3498 27.7652 16.3498 27.703 16.412C27.6408 16.4742 27.6417 16.5364 27.6417 16.8964C27.6565 17.3351 27.5624 17.7706 27.3679 18.164C27.2684 18.3498 27.2559 18.3133 27.343 18.1027C27.4223 17.8543 27.4475 17.5918 27.4168 17.3329C27.4168 16.2511 27.2924 15.9907 26.535 15.5551C26.3083 15.4249 26.0761 15.3045 25.839 15.1942C25.7237 15.1481 25.6117 15.094 25.5039 15.0324C25.8614 15.1011 26.2113 15.205 26.5483 15.3427C26.983 15.5204 27.0586 15.5284 27.1075 15.5204C27.1448 15.484 27.1706 15.3844 27.183 15.076L27.1812 15.0644Z" fill="#242424"/>
<path d="M18.4289 16.9178C17.8845 16.1359 17.6096 15.1979 17.6457 14.2458L17.6706 13.9845L17.7951 14.0094C18.0735 14.0692 18.3416 14.1699 18.5906 14.3081C19.0884 14.6058 19.3115 15.0192 19.5231 16.0352C19.5844 16.3338 19.6724 16.6814 19.7089 16.7934C19.8396 17.1097 20.0067 17.4098 20.2066 17.6876C20.3435 17.8858 20.2564 17.9854 19.9453 17.9614C19.3277 17.8141 18.787 17.4421 18.4289 16.9178Z" fill="#242424"/>
<path d="M26.5465 22.324C24.0852 21.3303 23.2158 20.4725 23.2158 19.0174C23.2158 18.8058 23.2283 18.6316 23.2283 18.6316C23.3016 18.6813 23.372 18.7353 23.4389 18.7934C23.9367 19.1916 24.4958 19.3649 26.0496 19.5889C26.6943 19.6643 27.331 19.7976 27.9518 19.9871C28.6264 20.1636 29.2359 20.5305 29.7075 21.044C30.1791 21.5576 30.4929 22.196 30.6114 22.8831C30.6671 23.4018 30.6422 23.9259 30.5376 24.4369C30.4529 24.754 30.3188 25.0558 30.1403 25.3311C30.1278 25.3311 30.1029 25.2698 30.1029 25.1694C30.0829 24.8989 30.0088 24.6353 29.885 24.394C29.7612 24.1527 29.5901 23.9388 29.382 23.7649C28.5201 23.1364 27.5622 22.6499 26.5465 22.324Z" fill="#242424"/>
<path d="M24.8069 22.7364C24.7815 22.5587 24.7398 22.3838 24.6825 22.2137L24.6211 22.028L24.7331 22.1648C24.9105 22.3777 25.0456 22.6223 25.1313 22.8857C25.2136 23.1079 25.244 23.346 25.2202 23.5817C25.2391 23.8092 25.2088 24.0381 25.1313 24.2528C25.0206 24.5656 24.8422 24.85 24.6087 25.0857C24.1017 25.5693 23.4411 25.8597 22.742 25.9062C22.5927 25.9186 22.1705 25.956 21.7971 25.98C21.0796 25.9915 20.3677 26.1086 19.6842 26.3275C19.6096 26.3524 19.5349 26.3773 19.5225 26.3648C19.7266 26.2016 19.9525 26.0675 20.1936 25.9666C20.7888 25.7124 21.4174 25.5448 22.0602 25.4688C22.4336 25.4188 22.8033 25.3443 23.1669 25.2457C23.7139 25.1243 24.1918 24.7937 24.4984 24.3247C24.805 23.8556 24.916 23.2853 24.8078 22.7355L24.8069 22.7364Z" fill="#242424"/>
<path d="M25.9355 24.7346C25.6218 24.1117 25.5426 23.3968 25.7124 22.7204C25.7373 22.6591 25.7622 22.5959 25.7862 22.5959C25.8503 22.6147 25.9105 22.6448 25.964 22.6848C26.1133 22.7844 26.4235 22.9586 27.2191 23.3959C27.9659 23.7475 28.637 24.2411 29.1951 24.8493C29.547 25.2816 29.7747 25.8015 29.8537 26.3533C29.9072 26.8466 29.8863 27.3453 29.7915 27.8324C29.6758 28.3345 29.4556 28.8066 29.1451 29.2179C28.8347 29.6291 28.441 29.9703 27.9897 30.2191C27.9061 30.2676 27.8187 30.3092 27.7284 30.3435C27.7519 30.2472 27.7897 30.1549 27.8404 30.0697C27.9875 29.7725 28.0732 29.4487 28.0924 29.1176C28.1117 28.7865 28.064 28.4549 27.9524 28.1426C27.7 27.5054 27.3659 26.9036 26.9586 26.3524C26.5759 25.843 26.2349 25.3034 25.9391 24.7391L25.9355 24.7346Z" fill="#242424"/>
<path d="M16.6797 28.5382C17.5653 27.7827 18.6312 27.269 19.7739 27.0467C20.3067 26.9737 20.8482 26.9945 21.3739 27.108C21.9962 27.2531 22.5495 27.6085 22.9401 28.1142C23.2646 28.6226 23.4608 29.2022 23.5117 29.8031C23.5614 30.1382 23.6237 30.4867 23.6361 30.5613C23.7003 30.9405 23.8934 31.2859 24.1828 31.5391C24.4445 31.6817 24.7362 31.7605 25.0341 31.7691C25.3321 31.7778 25.6278 31.716 25.8974 31.5889C25.9645 31.5589 26.0354 31.5382 26.1081 31.5276C25.9522 31.6774 25.7719 31.7995 25.5748 31.8884C25.3008 32.0371 24.9921 32.1102 24.6805 32.1C24.3685 32.09 24.0644 31.9987 23.7985 31.8352C23.5325 31.6716 23.3139 31.4415 23.1641 31.1676C23.0096 30.9033 22.8724 30.6292 22.7534 30.3471C22.5658 29.6814 22.153 29.1015 21.5854 28.7062C21.3737 28.5643 21.1299 28.4775 20.8761 28.4536C20.6223 28.4297 20.3666 28.4695 20.1321 28.5693C20.0012 28.6297 19.886 28.7196 19.7955 28.8318C19.705 28.9441 19.6417 29.0757 19.6104 29.2165C19.5792 29.3573 19.5809 29.5033 19.6154 29.6433C19.6499 29.7833 19.7163 29.9134 19.8094 30.0236C20.0001 30.2213 20.2495 30.3523 20.5205 30.3969C20.6281 30.4111 20.7374 30.4021 20.8411 30.3705C20.9449 30.3389 21.0406 30.2854 21.122 30.2136C21.2033 30.1418 21.2682 30.0534 21.3124 29.9544C21.3567 29.8554 21.3791 29.748 21.3783 29.6396C21.3878 29.5069 21.3526 29.3748 21.2784 29.2645C21.2041 29.1541 21.095 29.0718 20.9685 29.0307C20.5703 28.8529 20.1357 29.0556 20.1481 29.4404C20.1457 29.5144 20.1675 29.5871 20.2102 29.6476C20.2529 29.7081 20.3141 29.753 20.3845 29.7756C20.4841 29.8244 20.4841 29.8244 20.4094 29.8129C20.3271 29.7902 20.2526 29.745 20.1944 29.6825C20.1362 29.62 20.0965 29.5425 20.0797 29.4587C20.0629 29.3749 20.0697 29.2881 20.0994 29.208C20.129 29.1279 20.1804 29.0576 20.2477 29.0049C20.3504 28.9257 20.4692 28.8699 20.5957 28.8413C20.7223 28.8126 20.8535 28.8118 20.9804 28.839C21.1072 28.8661 21.2266 28.9205 21.3304 28.9985C21.4341 29.0764 21.5196 29.1759 21.581 29.2902C21.6828 29.5614 21.6916 29.8588 21.6059 30.1356C21.496 30.404 21.2897 30.6217 21.0276 30.7459C20.7654 30.87 20.4663 30.8917 20.189 30.8067C19.7572 30.6886 19.3768 30.4307 19.1072 30.0733C18.8132 29.7004 18.4423 29.3952 18.0197 29.1786C17.5971 28.962 17.1327 28.8391 16.6583 28.8182L16.4219 28.7809L16.6832 28.5329L16.6797 28.5382Z" fill="#242424"/>
<path fill-rule="evenodd" clip-rule="evenodd" d="M10.1405 8.53915C13.0365 12.0565 17.4987 17.5258 17.7218 17.8245C17.9076 18.0734 17.8338 18.3089 17.5236 18.4832C17.3018 18.5951 17.0602 18.6624 16.8125 18.6814C16.5879 18.6721 16.3751 18.5788 16.216 18.42C16.104 18.308 15.6196 17.5996 14.5271 15.8974C14.0156 15.0933 13.4976 14.2932 12.9734 13.4974C13.3919 14.4288 13.8823 15.3264 14.44 16.1818C14.9121 16.9501 15.3354 17.7472 15.7076 18.5685C15.7076 18.7303 15.6578 18.8174 15.4587 19.0405C15.0803 19.5188 14.8706 20.1088 14.8622 20.7187C14.7012 21.7963 14.2055 22.796 13.4454 23.5765C13.1363 23.909 12.873 24.2811 12.6622 24.6832C12.4983 24.989 12.4128 25.3308 12.4134 25.6778C12.3855 26.0905 12.4405 26.5045 12.5751 26.8956C12.7109 27.314 12.9122 27.7083 13.1716 28.0636C13.3773 28.3362 13.5329 28.6432 13.6311 28.9703C13.6311 29.0698 13.656 29.0698 14.1031 28.9703C15.0112 28.8089 15.8556 28.3952 16.5396 27.7765C16.6717 27.6594 16.7743 27.5128 16.8391 27.3486C16.904 27.1845 16.9293 27.0073 16.9129 26.8316C16.9299 26.6526 16.8992 26.4723 16.824 26.3089C16.6178 25.9523 16.3169 25.6598 15.9547 25.4636C15.6946 25.3318 15.4671 25.1438 15.2888 24.9132C15.1104 24.6826 14.9857 24.4151 14.9236 24.1303C14.8802 23.6038 15.0162 23.0781 15.3094 22.6387C15.6412 22.0354 15.8284 21.3632 15.856 20.6752C15.8934 20.1525 15.9556 19.9418 16.1049 19.7809C16.193 19.6887 16.2992 19.6157 16.4168 19.5665C16.5344 19.5172 16.661 19.4928 16.7885 19.4947C17.2936 19.4655 17.7747 19.2687 18.1556 18.9356C18.2887 18.8252 18.3956 18.6865 18.4686 18.5297C18.5417 18.3729 18.5789 18.2019 18.5778 18.0289L18.5902 17.7427L18.4285 17.5649C17.8445 16.8938 9.75291 7.99426 9.71735 7.99426C9.70491 7.99426 9.90313 8.23071 10.1396 8.5276L10.1405 8.53915ZM13.9556 26.2138C14.0206 26.1007 14.0401 25.967 14.0101 25.84C13.98 25.713 13.9027 25.6022 13.7938 25.5303C13.5831 25.3934 13.2605 25.4556 13.2605 25.6423C13.2604 25.6712 13.2702 25.6994 13.2883 25.722C13.3064 25.7447 13.3317 25.7604 13.36 25.7667C13.472 25.828 13.4845 25.8912 13.3974 26.028C13.3102 26.1649 13.3085 26.2894 13.4222 26.3765C13.4663 26.407 13.5167 26.4272 13.5696 26.4355C13.6226 26.4438 13.6767 26.4401 13.728 26.4245C13.7793 26.409 13.8264 26.382 13.8658 26.3457C13.9052 26.3093 13.9359 26.2646 13.9556 26.2147V26.2138Z" fill="#242424"/>
<path fill-rule="evenodd" clip-rule="evenodd" d="M18.9913 19.6769C18.8297 19.7379 18.6848 19.8361 18.5683 19.9635C18.4517 20.0909 18.3667 20.2439 18.3201 20.4102C18.2675 20.6347 18.289 20.8701 18.3815 21.0813C18.5184 21.2591 18.6428 21.3053 18.9904 21.3053C19.6739 21.3053 20.2579 21.0075 20.3237 20.6467C20.3278 20.4593 20.2771 20.2749 20.1778 20.116C20.0785 19.9571 19.9348 19.8307 19.7646 19.7524C19.5221 19.6466 19.2524 19.6201 18.9939 19.6769H18.9913ZM19.7868 20.2991C19.8114 20.2645 19.8277 20.2249 19.8347 20.1831C19.8417 20.1413 19.8391 20.0984 19.8271 20.0578C19.8152 20.0171 19.7941 19.9797 19.7656 19.9484C19.737 19.917 19.7017 19.8926 19.6624 19.8769C19.3273 19.6653 18.817 19.8395 18.817 20.1631C18.817 20.3249 19.0784 20.4991 19.3273 20.4991C19.5003 20.4932 19.6646 20.4217 19.7868 20.2991Z" fill="#242424"/>
</svg>

<svg width="41" height="41" viewBox="0 0 41 41" fill="none" xmlns="http://www.w3.org/2000/svg"><mask id="a" style="mask-type:luminance" maskUnits="userSpaceOnUse" x="0" y="0" width="41" height="41"><path d="M40.625.5v40h-40V.5z" fill="#fff"/></mask><g mask="url(#a)"><path d="M20.233.5a19.608 19.608 0 1 1 0 39.216 19.608 19.608 0 0 1 0-39.216" fill="#DFE225"/></g><path d="M17.922 13.487c-.261-.038-.274-.051-.15-.062a4.1 4.1 0 0 1 1.169.1c1.012.29 1.907.89 2.56 1.714l.224.262.322-.05a6.93 6.93 0 0 1 3.977.498q.474.215.895.522.07.168.088.348c.106.454.058.93-.136 1.355a.37.37 0 0 0-.038.398.37.37 0 0 0 .335.212c.298 0 .61-.473.758-1.131l.061-.261.112.124a4.9 4.9 0 0 1 1.206 2.387l.025.185-.112-.161a2.1 2.1 0 0 0-.596-.635 3.7 3.7 0 0 0-2.051-.435 8.4 8.4 0 0 1-2.274-.347c-1.018-.335-1.541-.77-2.746-2.375a11.3 11.3 0 0 0-1.207-1.416 4.2 4.2 0 0 0-2.422-1.23z" fill="#242424"/><path d="M27.181 15.064c.001-.367.077-.73.223-1.066a1 1 0 0 1 .112-.21c.013 0-.012.088-.05.185-.1.356-.118.73-.05 1.094.09.56.125.635.722 1.245.273.286.596.646.72.795l.212.274-.211-.198a7.6 7.6 0 0 0-.994-.783c-.09-.05-.1-.05-.162.012s-.061.124-.061.484c.015.44-.08.875-.274 1.268-.1.186-.112.15-.025-.061a1.8 1.8 0 0 0 .074-.77c0-1.082-.125-1.342-.882-1.778a9 9 0 0 0-.696-.36 3 3 0 0 1-.335-.163 5.5 5.5 0 0 1 1.044.31c.435.178.51.186.56.178.037-.036.063-.136.075-.444zm-8.752 1.854a4.4 4.4 0 0 1-.783-2.672l.025-.261.124.024c.278.06.547.16.796.3.497.297.72.71.932 1.726.061.299.15.646.186.758q.196.477.498.895c.136.198.05.297-.262.273a2.55 2.55 0 0 1-1.516-1.043m8.118 5.406c-2.462-.994-3.331-1.852-3.331-3.307 0-.211.012-.385.012-.385q.111.075.21.161c.499.399 1.058.572 2.612.796.644.075 1.281.209 1.902.398a3.63 3.63 0 0 1 2.66 2.896c.055.519.03 1.043-.074 1.554a3.1 3.1 0 0 1-.398.894c-.012 0-.037-.061-.037-.162a2.03 2.03 0 0 0-.721-1.404 10 10 0 0 0-2.835-1.441m-1.74.412a3 3 0 0 0-.124-.522l-.062-.186.112.137c.177.213.313.457.398.72.083.223.113.461.09.697a1.6 1.6 0 0 1-.09.67 2.25 2.25 0 0 1-.522.834 3 3 0 0 1-1.867.82c-.15.013-.572.05-.945.074a7.3 7.3 0 0 0-2.113.348c-.074.024-.15.05-.162.037q.308-.246.672-.398a6.8 6.8 0 0 1 1.866-.498q.561-.076 1.107-.223a2.147 2.147 0 0 0 1.64-2.51" fill="#242424"/><path d="M25.936 24.735a2.9 2.9 0 0 1-.224-2.015c.025-.06.05-.124.074-.124a.6.6 0 0 1 .178.089c.15.1.46.274 1.255.71a6.4 6.4 0 0 1 1.976 1.454c.352.433.58.953.659 1.504a5 5 0 0 1-.062 1.48 3.67 3.67 0 0 1-1.802 2.386q-.126.073-.262.124a1 1 0 0 1 .112-.273 2.47 2.47 0 0 0 .112-1.927 8 8 0 0 0-.993-1.79 12 12 0 0 1-1.02-1.614zm-9.256 3.803a6.76 6.76 0 0 1 3.094-1.491 4.6 4.6 0 0 1 1.6.061c.622.145 1.175.5 1.566 1.006.325.509.52 1.088.572 1.69.05.334.112.683.124.757.064.38.257.725.547.978a1.9 1.9 0 0 0 1.714.05.8.8 0 0 1 .211-.061q-.236.226-.533.36a1.76 1.76 0 0 1-.895.212 1.8 1.8 0 0 1-1.516-.932 7 7 0 0 1-.41-.82 3 3 0 0 0-1.169-1.642 1.53 1.53 0 0 0-1.453-.137.937.937 0 0 0-.323 1.455c.191.197.44.328.711.373a.76.76 0 0 0 .858-.757.596.596 0 0 0-.41-.61c-.398-.177-.832.026-.82.41a.34.34 0 0 0 .236.336c.1.048.1.048.025.037a.462.462 0 0 1-.161-.808.892.892 0 0 1 1.333.285c.102.271.11.569.025.846a1.163 1.163 0 0 1-1.417.67 2.02 2.02 0 0 1-1.082-.733 3.3 3.3 0 0 0-2.449-1.255l-.236-.037.261-.248z" fill="#242424"/><path fill-rule="evenodd" clip-rule="evenodd" d="M10.14 8.54c2.896 3.517 7.359 8.986 7.582 9.285.186.248.112.484-.198.658-.222.112-.464.18-.712.198a.9.9 0 0 1-.596-.261c-.112-.112-.596-.82-1.689-2.523q-.767-1.206-1.554-2.4c.419.932.91 1.83 1.467 2.685q.708 1.153 1.268 2.387c0 .161-.05.248-.25.472a2.77 2.77 0 0 0-.596 1.678 5.2 5.2 0 0 1-1.417 2.857 5 5 0 0 0-.783 1.107c-.164.306-.25.648-.249.995a3.1 3.1 0 0 0 .162 1.218c.136.418.337.812.597 1.168.205.272.36.58.46.906 0 .1.024.1.471 0a4.9 4.9 0 0 0 2.437-1.194 1.12 1.12 0 0 0 .373-.944 1 1 0 0 0-.089-.523 2.23 2.23 0 0 0-.87-.845 1.96 1.96 0 0 1-1.03-1.334 2.34 2.34 0 0 1 .385-1.491 4.44 4.44 0 0 0 .547-1.964c.037-.523.1-.733.249-.894a.93.93 0 0 1 .683-.286c.506-.03.987-.226 1.368-.56a1.17 1.17 0 0 0 .422-.906l.012-.286-.162-.178c-.584-.671-8.675-9.57-8.71-9.57-.013 0 .185.236.422.533zm3.816 17.674a.513.513 0 0 0-.162-.684c-.21-.137-.534-.074-.534.112a.13.13 0 0 0 .1.125c.112.061.125.124.037.261-.087.137-.088.261.025.349a.356.356 0 0 0 .534-.162zm5.035-6.537a1.1 1.1 0 0 0-.67.733c-.054.225-.032.46.06.671.137.178.262.224.61.224.683 0 1.267-.297 1.333-.658a.96.96 0 0 0-.56-.895 1.25 1.25 0 0 0-.77-.075zm.796.622a.28.28 0 0 0-.125-.422c-.335-.212-.845-.037-.845.286 0 .162.261.336.51.336a.68.68 0 0 0 .46-.2" fill="#242424"/></svg>
